src/pos-icons/screw-lag.svg

<svg height="24" viewBox="0 0 24 24" width="24" xmlns="http://www.w3.org/2000/svg"><path d="m10 19.3 4-2.7v3.4l-2 2-2-2zm4-6.6-4 2.7v2l-1 .6v1l6-3.9v-1.1l-1 .7zm-7-10.7v3h10v-3zm2 4v3l1 .7v3.7l-1 .6v1l6-3.9v-1.1l-1 .7s0-.4 0-1l1-.7v-3z"/></svg>

<?xml version="1.0" encoding="UTF-8"?><!DOCTYPE svg PUBLIC "-//W3C//DTD SVG 1.1//EN" "http://www.w3.org/Graphics/SVG/1.1/DTD/svg11.dtd"><svg xmlns="http://www.w3.org/2000/svg" xmlns:xlink="http://www.w3.org/1999/xlink" version="1.1" id="mdi-screw-lag" width="24" height="24" viewBox="0 0 24 24"><path d="M10,19.3L14,16.6V20L12,22L10,20V19.3M14,12.7L10,15.4V17.4L9,18V19L15,15.1V14L14,14.7V12.7M7,2V5H17V2H7M9,6V9L10,9.7V13.4L9,14V15L15,11.1V10L14,10.7C14,10.7 14,10.3 14,9.7L15,9V6H9Z" /></svg>
